ufans-frontend-package/public/assets/images/new-settings/documents.svg

<?xml version="1.0"?>
<svg xmlns="http://www.w3.org/2000/svg" xmlns:xlink="http://www.w3.org/1999/xlink" xmlns:svgjs="http://svgjs.com/svgjs" version="1.1" width="512" height="512" x="0" y="0" viewBox="0 0 512 512" style="enable-background:new 0 0 512 512" xml:space="preserve" class=""><g><path xmlns="http://www.w3.org/2000/svg" d="m433.798 106.268-96.423-91.222c-10.256-9.703-23.68-15.046-37.798-15.046h-183.577c-30.327 0-55 24.673-55 55v402c0 30.327 24.673 55 55 55h280c30.327 0 55-24.673 55-55v-310.778c0-15.049-6.27-29.612-17.202-39.954zm-29.137 13.732h-74.661c-2.757 0-5-2.243-5-5v-70.364zm-8.661 362h-280c-13.785 0-25-11.215-25-25v-402c0-13.785 11.215-25 25-25h179v85c0 19.299 15.701 35 35 35h91v307c0 13.785-11.215 25-25 25z" fill="#6661e7" data-original="#000000" class=""/><path xmlns="http://www.w3.org/2000/svg" d="m363 200h-220c-8.284 0-15 6.716-15 15s6.716 15 15 15h220c8.284 0 15-6.716 15-15s-6.716-15-15-15z" fill="#6661e7" data-original="#000000" class=""/><path xmlns="http://www.w3.org/2000/svg" d="m363 280h-220c-8.284 0-15 6.716-15 15s6.716 15 15 15h220c8.284 0 15-6.716 15-15s-6.716-15-15-15z" fill="#6661e7" data-original="#000000" class=""/><path xmlns="http://www.w3.org/2000/svg" d="m215.72 360h-72.72c-8.284 0-15 6.716-15 15s6.716 15 15 15h72.72c8.284 0 15-6.716 15-15s-6.716-15-15-15z" fill="#6661e7" data-original="#000000" class=""/></g></svg>

<svg xmlns="http://www.w3.org/2000/svg" width="390" height="512" viewBox="0 0 390 512">
  <g id="documents" transform="translate(-61 0)">
    <path id="Path_6" data-name="Path 6" d="M433.8,106.268,337.375,15.046A54.785,54.785,0,0,0,299.577,0H116A55.062,55.062,0,0,0,61,55V457a55.062,55.062,0,0,0,55,55H396a55.062,55.062,0,0,0,55-55V146.222a55.225,55.225,0,0,0-17.2-39.954ZM404.661,120H330a5.006,5.006,0,0,1-5-5V44.636ZM396,482H116a25.028,25.028,0,0,1-25-25V55a25.028,25.028,0,0,1,25-25H295v85a35.04,35.04,0,0,0,35,35h91V457a25.028,25.028,0,0,1-25,25Z" fill="#e44499"/>
    <path id="Path_7" data-name="Path 7" d="M363,200H143a15,15,0,0,0,0,30H363a15,15,0,1,0,0-30Z" fill="#e44499"/>
    <path id="Path_8" data-name="Path 8" d="M363,280H143a15,15,0,0,0,0,30H363a15,15,0,1,0,0-30Z" fill="#e44499"/>
    <path id="Path_9" data-name="Path 9" d="M215.72,360H143a15,15,0,0,0,0,30h72.72a15,15,0,1,0,0-30Z" fill="#e44499"/>
  </g>
</svg>
